X: 1958
T: Vive L'Amour
C:trad
B: australian traditional tunes wiki
M:6/8
L:1/8
R: Jig
Q: 3/8=100
K:G
V:1 
D|"G"GFG "C"GFE|"G"DED B,2D|GFG"D7"A2F|"G"G3-G2D|GFG "C"GFE|"G"DEDB,2D|GFG "D7"A2F|"G"G3-G2A|
BAB BAB|"C"cBcc3|"D7"AGA AGA|"G"BABB3|GFGG3|"C"AGAA3|"D7"F2FE2F|"G"G3-G2||
% abcbook-tune_id 6342d5be75888aeb499e1f8a


% abcbook-boost 0
% abcbook-tablature 
% abcbook-transpose 
% abcbook-lastupdated 1665324490352
% abcbook-soundfonts 
% abcbook-repeats 1
% NFF Book 2017

